assets/svg/currencies/fiat/AUD.svg

<svg width="300" height="300" viewBox="0 0 300 300" fill="none" xmlns="http://www.w3.org/2000/svg">
<path d="M150 300C232.843 300 300 232.843 300 150C300 67.1573 232.843 0 150 0C67.1573 0 0 67.1573 0 150C0 232.843 67.1573 300 150 300Z" fill="#10BA97"/>
<path d="M139.8 105.8L123.78 116.42C118.86 107.18 112.62 102.56 105.06 102.56C101.1 102.56 97.9199 103.88 95.5199 106.52C93.1199 109.04 91.9199 112.28 91.9199 116.24C91.9199 123.92 98.2799 130.76 111 136.76C116.16 139.04 120.24 141.02 123.24 142.7C126.24 144.26 129.78 146.6 133.86 149.72C137.94 152.84 140.94 156.5 142.86 160.7C144.9 164.9 145.92 169.7 145.92 175.1C145.92 184.82 143.1 193.1 137.46 199.94C131.94 206.66 124.56 210.86 115.32 212.54V228.2H97.3199V212.54C89.0399 210.86 82.0199 207.02 76.2599 201.02C70.6199 194.9 66.8399 187.34 64.9199 178.34L81.1199 168.08C85.5599 185.84 94.0199 194.72 106.5 194.72C112.14 194.72 116.76 192.98 120.36 189.5C123.96 185.9 125.76 181.34 125.76 175.82C125.76 171.98 124.44 168.62 121.8 165.74C119.16 162.74 115.86 160.34 111.9 158.54C107.94 156.62 103.62 154.46 98.9399 152.06C94.2599 149.66 89.9399 147.2 85.9799 144.68C82.0199 142.04 78.7199 138.44 76.0799 133.88C73.4399 129.2 72.1199 123.8 72.1199 117.68C72.1199 109.76 74.4599 102.8 79.1399 96.8C83.8199 90.9201 89.8799 87.1401 97.3199 85.4601V69.8H115.32V85.82C125.76 88.58 133.92 95.24 139.8 105.8Z" fill="white"/>
<path d="M226.541 225.071L173 205.49V191.722L226.541 172.294V184.609L214.839 188.739V209.085L226.541 213.215V225.071ZM205.584 206.025V191.875L185.238 198.989L205.584 206.025Z" fill="white"/>
<path d="M173 159.502H204.054C208.388 159.502 211.652 158.661 213.844 156.978C216.037 155.295 217.133 152.644 217.133 149.023C217.133 145.403 216.037 142.751 213.844 141.069C211.652 139.335 208.388 138.468 204.054 138.468H173V126.995H203.442C211.091 126.995 216.929 128.882 220.958 132.655C224.986 136.377 227 141.833 227 149.023C227 156.213 224.986 161.669 220.958 165.392C216.929 169.114 211.091 170.975 203.442 170.975H173V159.502Z" fill="white"/>
<path d="M173 118.232V99.6453C173 94.2912 174.147 89.5745 176.442 85.4952C178.686 81.3649 181.847 78.2034 185.926 76.0108C189.955 73.7671 194.569 72.6453 199.771 72.6453C204.972 72.6453 209.612 73.7671 213.691 76.0108C217.72 78.2034 220.881 81.3649 223.176 85.4952C225.419 89.5745 226.541 94.2912 226.541 99.6453V118.232L173 118.232ZM216.98 99.6453C216.98 94.8011 215.425 91.0533 212.314 88.4017C209.153 85.6991 204.972 84.3479 199.771 84.3479C194.569 84.3479 190.414 85.6991 187.303 88.4017C184.142 91.0533 182.561 94.8011 182.561 99.6453V106.759L216.98 106.759V99.6453Z" fill="white"/>
</svg>

<svg viewBox="0 0 300 300" fill="none" xmlns="http://www.w3.org/2000/svg">
    <path d="M150 300c82.843 0 150-67.157 150-150S232.843 0 150 0 0 67.157 0 150s67.157 150 150 150z" fill="#10BA97"/>
    <path d="M139.8 105.8l-16.02 10.62c-4.92-9.24-11.16-13.86-18.72-13.86-3.96 0-7.14 1.32-9.54 3.96-2.4 2.52-3.6 5.76-3.6 9.72 0 7.68 6.36 14.52 19.08 20.52 5.16 2.28 9.24 4.26 12.24 5.94 3 1.56 6.54 3.9 10.62 7.02 4.08 3.12 7.08 6.78 9 10.98 2.04 4.2 3.06 9 3.06 14.4 0 9.72-2.82 18-8.46 24.84-5.52 6.72-12.9 10.92-22.14 12.6v15.66h-18v-15.66c-8.28-1.68-15.3-5.52-21.06-11.52-5.64-6.12-9.42-13.68-11.34-22.68l16.2-10.26c4.44 17.76 12.9 26.64 25.38 26.64 5.64 0 10.26-1.74 13.86-5.22 3.6-3.6 5.4-8.16 5.4-13.68 0-3.84-1.32-7.2-3.96-10.08-2.64-3-5.94-5.4-9.9-7.2a650.77 650.77 0 01-12.96-6.48c-4.68-2.4-9-4.86-12.96-7.38-3.96-2.64-7.26-6.24-9.9-10.8-2.64-4.68-3.96-10.08-3.96-16.2 0-7.92 2.34-14.88 7.02-20.88 4.68-5.88 10.74-9.66 18.18-11.34V69.8h18v16.02c10.44 2.76 18.6 9.42 24.48 19.98zm86.741 119.271L173 205.49v-13.768l53.541-19.428v12.315l-11.702 4.13v20.346l11.702 4.13v11.856zm-20.957-19.046v-14.15l-20.346 7.114 20.346 7.036zM173 159.502h31.054c4.334 0 7.598-.841 9.79-2.524 2.193-1.683 3.289-4.334 3.289-7.955 0-3.62-1.096-6.272-3.289-7.954-2.192-1.734-5.456-2.601-9.79-2.601H173v-11.473h30.442c7.649 0 13.487 1.887 17.516 5.66 4.028 3.722 6.042 9.178 6.042 16.368 0 7.19-2.014 12.646-6.042 16.369-4.029 3.722-9.867 5.583-17.516 5.583H173v-11.473zm0-41.27V99.645c0-5.354 1.147-10.07 3.442-14.15 2.244-4.13 5.405-7.292 9.484-9.484 4.029-2.244 8.643-3.366 13.845-3.366 5.201 0 9.841 1.122 13.92 3.366 4.029 2.192 7.19 5.354 9.485 9.484 2.243 4.08 3.365 8.796 3.365 14.15v18.587H173zm43.98-18.587c0-4.844-1.555-8.592-4.666-11.243-3.161-2.703-7.342-4.054-12.543-4.054-5.202 0-9.357 1.351-12.468 4.054-3.161 2.651-4.742 6.4-4.742 11.243v7.114h34.419v-7.114z" fill="#fff"/>
</svg>
